X: 31381
T: Paddy O'Rafferty's
R: jig
M: 6/8
K: Amajor
|:EAc FAd|EAc BAF|EAc FAd|cdB AFD|
EAc FAd|EAc efg|aed ~c2B|ABA AFE:|
|:e^de fec|~e3 ecd|e^de fga|~A3 AFE|
e^de fec|~e3 efg|aed ~c2B|ABA AFE:|

